X: 1
T: Billy Brocker's
M: 4/4
L: 1/8
S: Dennis Liddy
R:reel
Z: Dow
K: Dmaj
AF~F2 AFBF|AF~F2 ~G3B|AF~F2 ABdf|efge fedB:|
ABde f2af|eABA eABA|dcdf ~a3f|g2eg fedB|
ABde f2af|eABA eABA|~f3f g2fg|(3ggf ge fedB||
